icon/pk/shuffle-one.svg

<svg viewBox="0 0 48 48" fill="none" xmlns="http://www.w3.org/2000/svg" height="1em" width="1em">
  <path d="M40 33L44 37L40 41" stroke="black" stroke-width="4" stroke-linecap="round" stroke-linejoin="round"/>
  <path d="M40 7L44 11L40 15" stroke="black" stroke-width="4" stroke-linecap="round" stroke-linejoin="round"/>
  <path d="M44 11H37C29.8203 11 24 16.8203 24 24C24 31.1797 29.8203 37 37 37H44" stroke="black" stroke-width="4" stroke-linecap="round"/>
  <path d="M4 37H11C18.1797 37 24 31.1797 24 24C24 16.8203 18.1797 11 11 11H4" stroke="black" stroke-width="4" stroke-linecap="round"/>
</svg>

<svg width="48" height="48" fill="none" xmlns="http://www.w3.org/2000/svg"><path d="m40 33 4 4-4 4M40 7l4 4-4 4" stroke="#000" stroke-width="4" stroke-linecap="round" stroke-linejoin="round"/><path d="M44 11h-7c-7.18 0-13 5.82-13 13s5.82 13 13 13h7M4 37h7c7.18 0 13-5.82 13-13s-5.82-13-13-13H4" stroke="#000" stroke-width="4" stroke-linecap="round"/></svg>
